X: 8374
T: Courting Them All
R: reel
M: 4/4
K: Dmajor
(3Bcd AF dAfe|dAFA GEE2|dAFA d2ef|g2ag fddz:|
a2fd Adfd|a2fa bgeg|a2fd Adfd|gbag fdd2|
a2fd Adfd|a2fa bgez|a2g2(3fgf ec|dzag fdd2|

